app/assets/images/payment_icons/capitec_pay.svg

<svg width="38" height="24" viewBox="0 0 38 24" role="img" fill="none" xmlns="http://www.w3.org/2000/svg" aria-labelledby="pi-capitec-pay">
<title id="pi-capitec-pay">Capitec Pay</title>
<rect x="1" y="1" width="36" height="22" rx="2" fill="white"/>
<rect x="0.5" y="0.5" width="37" height="23" rx="2.5" stroke="black" stroke-opacity="0.07"/>
<path d="M11.4254 9.00171H6.72137V11.0224C6.72329 11.7269 7.2959 12.297 8.00162 12.297H10.4618C11.3535 12.3213 12.0633 13.0507 12.0621 13.9412V15.8548C13.7697 15.5733 15.0759 14.088 15.0759 12.43C15.0759 10.5734 13.4323 9.00171 11.4254 9.00171Z" fill="#E61414"/>
<path d="M9.47907 12.5388H7.02758C6.60451 12.5406 6.19807 12.3746 5.89762 12.0773C5.59719 11.78 5.42737 11.3757 5.42553 10.9533V9C3.52246 9.10881 2 10.6356 2 12.4231C2 14.2814 3.64183 15.8531 5.65045 15.8531H10.7593V13.8186C10.7574 13.1132 10.1856 12.5416 9.47907 12.5388Z" fill="#00486D"/>
<path d="M19.2216 14.3359C19.7672 14.3359 20.1598 14.0096 20.1598 13.4641V13.0868H19.5785V13.4284C19.5785 13.6323 19.4459 13.77 19.2318 13.77C19.0024 13.77 18.8698 13.6374 18.8698 13.3876V11.5215C18.8698 11.3022 18.9769 11.1493 19.2267 11.1493C19.4459 11.1493 19.5785 11.2869 19.5785 11.5011V11.8427H20.1598V11.4399C20.1598 10.9096 19.7621 10.5935 19.2267 10.5935C18.6556 10.5935 18.2172 10.9249 18.2172 11.5062V13.4233C18.2172 14.0351 18.6353 14.3359 19.2216 14.3359Z" fill="#00466E"/>
<path d="M21.0776 14.3359C21.2305 14.3359 21.4855 14.2543 21.5874 14.0096H21.6027C21.6129 14.1575 21.6282 14.2645 21.6282 14.2849H22.1789C22.1789 14.2186 22.1534 13.877 22.1534 13.6578V12.2352C22.1534 11.7815 21.8424 11.5112 21.358 11.5112C20.8685 11.5112 20.5371 11.7866 20.5371 12.2046V12.4443H21.0827V12.2149C21.0827 12.0874 21.149 11.9905 21.3172 11.9905C21.4804 11.9905 21.5568 12.0823 21.5568 12.2149V12.6279H21.3988C20.9042 12.638 20.481 12.944 20.481 13.515C20.481 14.0912 20.7512 14.3359 21.0776 14.3359ZM21.3019 13.8668C21.1693 13.8668 21.0827 13.7445 21.0827 13.4436C21.0827 13.1326 21.2305 12.995 21.4141 12.995H21.5568V13.5558C21.5568 13.7292 21.4345 13.8668 21.3019 13.8668Z" fill="#00466E"/>
<path d="M22.6071 15.1058H23.2087V14.1014H23.2138C23.3209 14.2595 23.5044 14.3359 23.6727 14.3359C24.0806 14.3359 24.31 14.0504 24.31 13.6935V12.1639C24.31 11.807 24.1418 11.5164 23.7288 11.5164C23.5452 11.5164 23.3158 11.6285 23.2036 11.8274H23.1934V11.5724H22.6071V15.1058ZM23.4789 13.8567C23.3311 13.8567 23.2087 13.7394 23.2087 13.5405V12.3525C23.2087 12.1231 23.326 12.0007 23.4789 12.0007C23.6319 12.0007 23.7135 12.1027 23.7135 12.2608V13.5915C23.7135 13.77 23.6166 13.8567 23.4789 13.8567Z" fill="#00466E"/>
<path d="M24.7383 14.285H25.34V11.5725H24.7383V14.285ZM24.7383 11.2156H25.34V10.5579H24.7383V11.2156Z" fill="#00466E"/>
<path d="M26.5179 14.3207C26.6453 14.3207 26.7982 14.3003 26.9205 14.2544V13.7751C26.8646 13.7904 26.7777 13.8006 26.7012 13.8006C26.5893 13.8006 26.5483 13.7445 26.5483 13.6324V12.062H26.936V11.5929H26.5483V10.976H25.9519V11.5929H25.702V12.062H25.9519V13.8108C25.9519 14.1728 26.2067 14.3207 26.5179 14.3207Z" fill="#00466E"/>
<path d="M28.1088 14.341C28.3942 14.341 28.6338 14.2798 28.8429 14.1779L28.7307 13.7445C28.6031 13.7903 28.4094 13.8515 28.226 13.8515C27.9812 13.8515 27.8436 13.719 27.8436 13.464V13.1377H28.8736V12.3015C28.8736 11.8273 28.5879 11.5112 28.0933 11.5112C27.6193 11.5112 27.247 11.8172 27.247 12.3576V13.5354C27.247 14.0759 27.6038 14.341 28.1088 14.341ZM27.8436 12.7094V12.276C27.8436 12.1282 27.9201 11.9905 28.0933 11.9905C28.2719 11.9905 28.3382 12.1231 28.3382 12.2709V12.7094H27.8436Z" fill="#00466E"/>
<path d="M30.0715 14.3359C30.556 14.3359 30.867 14.0861 30.867 13.6374V13.3927H30.3316V13.6068C30.3316 13.7241 30.2754 13.8566 30.092 13.8566C29.9135 13.8566 29.8421 13.7241 29.8421 13.5609V12.2862C29.8421 12.1282 29.9186 12.0007 30.092 12.0007C30.2602 12.0007 30.3316 12.1129 30.3316 12.2454V12.4596H30.867V12.2046C30.867 11.807 30.5661 11.5112 30.0817 11.5112C29.6228 11.5112 29.2404 11.7968 29.2404 12.327V13.5456C29.2404 14.0657 29.5924 14.3359 30.0715 14.3359Z" fill="#00466E"/>
<path d="M32.0142 14.285H32.6567V12.9237H33.0135C33.6408 12.9237 33.916 12.475 33.916 11.7459C33.916 11.0525 33.6357 10.6497 33.0391 10.6497H32.0142V14.285ZM32.6567 12.3934V11.185H32.932C33.187 11.185 33.289 11.389 33.289 11.7612C33.289 12.1844 33.1665 12.3934 32.9218 12.3934H32.6567Z" fill="#00466E"/>
<path d="M34.8337 14.3359C34.9867 14.3359 35.2417 14.2543 35.3437 14.0096H35.3589C35.369 14.1575 35.3845 14.2645 35.3845 14.2849H35.935C35.935 14.2186 35.9097 13.877 35.9097 13.6578V12.2352C35.9097 11.7815 35.5985 11.5112 35.1143 11.5112C34.6248 11.5112 34.2933 11.7866 34.2933 12.2046V12.4443H34.8388V12.2149C34.8388 12.0874 34.9051 11.9905 35.0735 11.9905C35.2366 11.9905 35.3131 12.0823 35.3131 12.2149V12.6279H35.155C34.6605 12.638 34.2373 12.944 34.2373 13.515C34.2373 14.0912 34.5075 14.3359 34.8337 14.3359ZM35.0581 13.8668C34.9256 13.8668 34.8388 13.7445 34.8388 13.4436C34.8388 13.1326 34.9867 12.995 35.1702 12.995H35.3131V13.5558C35.3131 13.7292 35.1907 13.8668 35.0581 13.8668Z" fill="#00466E"/>
<path d="M36.6541 15.1568C37.0109 15.1568 37.2302 14.9324 37.3474 14.4583L38 11.5724H37.4545L37.1588 13.2805H37.1436L36.7969 11.5724H36.1747L36.8528 14.2594L36.7969 14.5041C36.7612 14.6265 36.6898 14.6724 36.5826 14.6724C36.5216 14.6724 36.4502 14.6571 36.3686 14.6418L36.3074 15.116C36.4094 15.1415 36.5163 15.1568 36.6541 15.1568Z" fill="#00466E"/>
</svg>

<svg width="38" height="24" viewBox="0 0 38 24" role="img" fill="none" xmlns="http://www.w3.org/2000/svg" aria-labelledby="pi-capitec_pay"><title id="pi-capitec_pay">Capitec Pay</title><rect x="1" y="1" width="36" height="22" rx="2" fill="#fff"/><rect x=".5" y=".5" width="37" height="23" rx="2.5" stroke="#000" stroke-opacity=".07"/><path d="M11.425 9.002H6.721v2.02a1.28 1.28 0 001.28 1.275h2.46a1.644 1.644 0 011.601 1.644v1.914c1.708-.282 3.014-1.767 3.014-3.425 0-1.857-1.644-3.428-3.65-3.428z" fill="#E61414"/><path d="M9.48 12.539H7.027a1.597 1.597 0 01-1.602-1.586V9C3.522 9.109 2 10.636 2 12.423c0 1.858 1.642 3.43 3.65 3.43h5.11V13.82a1.284 1.284 0 00-1.28-1.28z" fill="#00486D"/><path d="M19.222 14.336c.545 0 .938-.326.938-.872v-.377h-.582v.341c0 .204-.132.342-.346.342-.23 0-.362-.133-.362-.382V11.52c0-.219.107-.372.357-.372.219 0 .351.138.351.352v.342h.582v-.403c0-.53-.398-.846-.933-.846-.571 0-1.01.33-1.01.912v1.917c0 .612.418.913 1.005.913zM21.078 14.336c.152 0 .407-.082.51-.326h.015c.01.148.025.255.025.275h.55c0-.066-.025-.408-.025-.627v-1.423c0-.454-.31-.724-.795-.724-.49 0-.82.276-.82.694v.24h.545v-.23c0-.128.066-.224.234-.224.163 0 .24.091.24.224v.413h-.158c-.495.01-.918.316-.918.887 0 .576.27.82.597.82zm.224-.47c-.133 0-.22-.121-.22-.422 0-.311.148-.449.332-.449h.143v.56c0 .174-.122.312-.255.312zM22.607 15.106h.602V14.1h.005c.107.158.29.235.459.235.408 0 .637-.286.637-.643v-1.53c0-.356-.168-.647-.581-.647a.636.636 0 00-.525.311h-.01v-.255h-.587v3.534zm.872-1.25c-.148 0-.27-.117-.27-.316v-1.188c0-.229.117-.351.27-.351.153 0 .235.102.235.26v1.33c0 .179-.097.266-.235.266zM24.738 14.285h.602v-2.713h-.602v2.713zm0-3.07h.602v-.657h-.602v.658zM26.518 14.32c.127 0 .28-.02.402-.066v-.479a.924.924 0 01-.219.026c-.112 0-.153-.056-.153-.169v-1.57h.388v-.47h-.388v-.616h-.596v.617h-.25v.469h.25v1.749c0 .362.255.51.566.51zM28.109 14.341c.285 0 .525-.061.734-.163l-.112-.434a1.578 1.578 0 01-.505.107c-.245 0-.382-.132-.382-.387v-.326h1.03v-.836c0-.475-.286-.79-.78-.79-.475 0-.847.305-.847.846v1.177c0 .54.357.806.862.806zm-.265-1.632v-.433c0-.148.076-.285.25-.285.178 0 .244.132.244.28v.438h-.494zM30.072 14.336c.484 0 .795-.25.795-.699v-.244h-.535v.214c0 .117-.057.25-.24.25-.178 0-.25-.133-.25-.296v-1.275c0-.158.077-.285.25-.285.168 0 .24.112.24.244v.215h.535v-.255c0-.398-.3-.694-.785-.694-.46 0-.842.286-.842.816v1.219c0 .52.352.79.832.79zM32.014 14.285h.643v-1.361h.357c.627 0 .902-.449.902-1.178 0-.694-.28-1.096-.877-1.096h-1.025v3.635zm.643-1.892v-1.208h.275c.255 0 .357.204.357.576 0 .423-.123.632-.367.632h-.265zM34.834 14.336c.153 0 .408-.082.51-.326h.015c.01.148.026.255.026.275h.55c0-.066-.025-.408-.025-.627v-1.423c0-.454-.311-.724-.796-.724-.49 0-.82.276-.82.694v.24h.545v-.23c0-.128.066-.224.235-.224.163 0 .24.091.24.224v.413h-.159c-.495.01-.918.316-.918.887 0 .576.27.82.597.82zm.224-.47c-.132 0-.22-.121-.22-.422 0-.311.149-.449.332-.449h.143v.56c0 .174-.122.312-.255.312zM36.654 15.157c.357 0 .576-.225.693-.699L38 11.572h-.545l-.296 1.709h-.015l-.347-1.709h-.622l.678 2.687-.056.245c-.036.123-.107.168-.214.168-.061 0-.133-.015-.214-.03l-.062.474c.102.026.21.04.347.04z" fill="#00466E"/></svg>
